build/img/sprite/pinterest.svg

<svg width="40" height="40" viewBox="0 0 40 40" fill="currentColor" xmlns="http://www.w3.org/2000/svg">
<path d="M19.9999 5C28.2847 5 35 11.7162 35 20.0001C35 28.2848 28.2847 35 19.9999 35C11.7152 35 5 28.2847 5 20.0001C5 11.7162 11.7153 5 19.9999 5Z" fill="currentColor"/>
<path d="M20 10C14.4823 10 10 14.4823 10 20C10 25.5177 14.4823 30 20 30C25.5177 30 30 25.5177 30 20C30 14.4823 25.5177 10 20 10ZM20 10.8696C25.0477 10.8696 29.1304 14.9523 29.1304 20C29.1304 25.0477 25.0477 29.1304 20 29.1304C19.0767 29.1304 18.186 28.9922 17.3463 28.7381C17.7203 28.1128 18.2032 27.219 18.395 26.481C18.509 26.0434 18.9776 24.2587 18.9776 24.2587C19.2821 24.84 20.1719 25.332 21.1192 25.332C23.9383 25.332 25.9706 22.7394 25.9706 19.5177C25.9706 16.4289 23.4502 14.1185 20.2072 14.1185C16.1725 14.1185 14.0311 16.8264 14.0311 19.775C14.0311 21.1462 14.7604 22.8531 15.9282 23.3967C16.105 23.4791 16.2 23.4434 16.2407 23.2719C16.2719 23.1418 16.4297 22.5073 16.5005 22.2121C16.5232 22.1179 16.5122 22.0365 16.436 21.9438C16.0495 21.475 15.7396 20.6138 15.7396 19.8106C15.7396 17.7487 17.3006 15.7532 19.9601 15.7532C22.2564 15.7532 23.8646 17.3186 23.8646 19.5567C23.8646 22.0853 22.5879 23.8375 20.9265 23.8375C20.0089 23.8375 19.3219 23.0784 19.5423 22.1476C19.8065 21.0366 20.3167 19.8378 20.3167 19.0353C20.3167 18.3177 19.9316 17.7191 19.1338 17.7191C18.1958 17.7191 17.4423 18.6889 17.4423 19.989C17.4423 20.8162 17.7225 21.3765 17.7225 21.3765C17.7225 21.3765 16.7959 25.2941 16.6262 26.0233C16.4561 26.7519 16.5017 27.7332 16.5718 28.4638C13.2266 27.1098 10.8696 23.8345 10.8696 20C10.8696 14.9523 14.9523 10.8696 20 10.8696Z" fill="#041827"/>
</svg>

<svg width="40" height="40" fill="currentColor" xmlns="http://www.w3.org/2000/svg"><path d="M20 5c8.285 0 15 6.716 15 15 0 8.285-6.715 15-15 15S5 28.285 5 20c0-8.284 6.715-15 15-15Z"/><path d="M20 10c-5.518 0-10 4.482-10 10s4.482 10 10 10 10-4.482 10-10-4.482-10-10-10Zm0 .87A9.124 9.124 0 0 1 29.13 20 9.124 9.124 0 0 1 20 29.13a9.148 9.148 0 0 1-2.654-.392c.374-.625.857-1.519 1.049-2.257l.583-2.222c.304.581 1.194 1.073 2.141 1.073 2.82 0 4.852-2.593 4.852-5.814 0-3.09-2.52-5.4-5.764-5.4-4.035 0-6.176 2.708-6.176 5.657 0 1.371.73 3.078 1.897 3.622.177.082.272.046.313-.125.03-.13.189-.765.26-1.06a.28.28 0 0 0-.065-.268c-.387-.469-.696-1.33-.696-2.133 0-2.062 1.56-4.058 4.22-4.058 2.296 0 3.905 1.566 3.905 3.804 0 2.528-1.277 4.28-2.938 4.28-.918 0-1.605-.759-1.385-1.69.264-1.11.775-2.31.775-3.112 0-.717-.385-1.316-1.183-1.316-.938 0-1.692.97-1.692 2.27 0 .827.28 1.387.28 1.387s-.926 3.918-1.096 4.647c-.17.729-.124 1.71-.054 2.44A9.124 9.124 0 0 1 10.87 20 9.124 9.124 0 0 1 20 10.87Z" fill="#041827"/></svg>
